packages/icons/svgs/outline/folder-gallery-outline.svg

<svg width="24" height="24" viewBox="0 0 24 24" fill="none" xmlns="http://www.w3.org/2000/svg">
<path d="M11 9H7V13H11V9Z" fill="black"/>
<path d="M17 9H13V13H17V9Z" fill="black"/>
<path d="M11 15H7V19H11V15Z" fill="black"/>
<path d="M17 15H13V19H17V15Z" fill="black"/>
<path fill-rule="evenodd" clip-rule="evenodd" d="M0 2C0 1.44772 0.447715 1 1 1H9C9.31476 1 9.61115 1.14819 9.8 1.4L12.5 5H23C23.5523 5 24 5.44772 24 6V20C24 20.7957 23.6839 21.5587 23.1213 22.1213C22.5587 22.6839 21.7957 23 21 23H3C2.20435 23 1.44129 22.6839 0.87868 22.1213C0.316071 21.5587 0 20.7957 0 20V2ZM2 3V20C2 20.2652 2.10536 20.5196 2.29289 20.7071C2.48043 20.8946 2.73478 21 3 21H21C21.2652 21 21.5196 20.8946 21.7071 20.7071C21.8946 20.5196 22 20.2652 22 20V7H12C11.6852 7 11.3889 6.85181 11.2 6.6L8.5 3H2Z" fill="black"/>
</svg>

<svg width="24" height="24" viewBox="0 0 24 24" xmlns="http://www.w3.org/2000/svg"><path d="M11 9H7v4h4V9Zm6 0h-4v4h4V9Zm-6 6H7v4h4v-4Zm6 0h-4v4h4v-4Z"/><path fill-rule="evenodd" clip-rule="evenodd" d="M0 2a1 1 0 0 1 1-1h8a1 1 0 0 1 .8.4L12.5 5H23a1 1 0 0 1 1 1v14a3 3 0 0 1-3 3H3a3 3 0 0 1-3-3V2Zm2 1v17a1 1 0 0 0 1 1h18a1 1 0 0 0 1-1V7H12a1 1 0 0 1-.8-.4L8.5 3H2Z"/></svg>
